en/_assets/wiki/svg/wysiwyg/section-big-right.svg

<svg xmlns="http://www.w3.org/2000/svg" xmlns:xlink="http://www.w3.org/1999/xlink" width="24" height="24" class="yc-icon" fill="currentColor" stroke="none" aria-hidden="true"><svg viewBox="0 0 24 24" fill="none" xmlns="http://www.w3.org/2000/svg"><path fill-rule="evenodd" clip-rule="evenodd" d="M5.5 8.5V15.5H6.5V8.5H5.5ZM11.5 8.5V15.5H17.5V8.5H11.5ZM4 8C4 7.44772 4.44772 7 5 7H7C7.55228 7 8 7.44772 8 8V16C8 16.5523 7.55228 17 7 17H5C4.44772 17 4 16.5523 4 16V8ZM10 8C10 7.44772 10.4477 7 11 7H18C18.5523 7 19 7.44772 19 8V16C19 16.5523 18.5523 17 18 17H11C10.4477 17 10 16.5523 10 16V8Z" fill="currentColor"></path></svg></svg>

<svg xmlns="http://www.w3.org/2000/svg" width="24" height="24" fill="currentColor" aria-hidden="true" class="yc-icon">
    <svg xmlns="http://www.w3.org/2000/svg" fill="none" viewBox="0 0 24 24">
        <path fill="currentColor" fill-rule="evenodd" d="M5.5 8.5v7h1v-7h-1Zm6 0v7h6v-7h-6ZM4 8a1 1 0 0 1 1-1h2a1 1 0 0 1 1 1v8a1 1 0 0 1-1 1H5a1 1 0 0 1-1-1V8Zm6 0a1 1 0 0 1 1-1h7a1 1 0 0 1 1 1v8a1 1 0 0 1-1 1h-7a1 1 0 0 1-1-1V8Z" clip-rule="evenodd"/>
    </svg>
</svg>
